Otagle3/Assets/ikonySvG/Zastrzezenie.svg

<svg id="SVGRoot" width="206px" height="206px" version="1.1" viewBox="0 0 206 206" xmlns="http://www.w3.org/2000/svg">
 <g transform="matrix(3.7795 0 0 3.7795 -1795.2 2502.6)">
  <flowRoot fill="black" font-family="sans-serif" font-size="40px" letter-spacing="0px" word-spacing="0px" style="line-height:1.25" xml:space="preserve"><flowRegion><rect x="-392.69" y="-63.57" width="758.02" height="397.52"/></flowRegion><flowPara/></flowRoot>
  <flowRoot fill="black" font-family="sans-serif" font-size="40px" letter-spacing="0px" word-spacing="0px" style="line-height:1.25" xml:space="preserve"><flowRegion><rect x="-251.87" y="-84.492" width="624.44" height="455.45"/></flowRegion><flowPara/></flowRoot>
  <flowRoot fill="black" font-family="sans-serif" font-size="40px" letter-spacing="0px" word-spacing="0px" style="line-height:1.25" xml:space="preserve"><flowRegion><rect x="-202.78" y="-50.695" width="473.96" height="281.64"/></flowRegion><flowPara/></flowRoot>
  <flowRoot fill="black" font-family="sans-serif" font-size="40px" letter-spacing="0px" word-spacing="0px" style="line-height:1.25" xml:space="preserve"><flowRegion><rect x="-86.906" y="-78.859" width="516.61" height="410.39"/></flowRegion><flowPara/></flowRoot>
  <g transform="translate(222.04 -.21291)">
   <rect x="254.2" y="-660.87" width="52.396" height="52.396" fill="#db3b3b" stroke="#000" stroke-linecap="round" stroke-width=".52068" style="paint-order:fill markers stroke"/>
   <text x="280.47281" y="-611.73071" font-family="sans-serif" font-size="6.35px" letter-spacing="0px" stroke-width=".26458" text-align="center" text-anchor="middle" word-spacing="0px" style="line-height:1.25" xml:space="preserve"><tspan x="280.47281" y="-611.73071" fill="#ffffff" font-family="sans-serif" font-size="4.9389px" stroke-width=".26458" text-align="center" text-anchor="middle">Zastrzeżenie</tspan></text>
   <g transform="matrix(.45803 0 0 .45803 266.07 -655.51)" fill="#fff">
    <path d="m59.4 47.05-21.39-37.04a6.891 6.891 0 00-6.354-3.461c-.116 0-.232.014-.347.024a6.862 6.862 0 00-5.319 3.437l-21.385 37.04a6.94 6.94 0 006.01 10.41h42.77a6.925 6.925 0 006.015-10.41zm-2.6 5.44a3.9 3.9 0 01-3.412 1.97h-42.773a3.9 3.9 0 01-3.415-1.97 3.9 3.9 0 010-3.94l21.388-37.04a3.94 3.94 0 016.824 0l21.388 37.04a3.9 3.9 0 010 3.94zm-21.229-26.216c-.053 3.692-1.57 9.687-2.61 13.382a1 1 0 01-1.923 0c-1.059-3.762-2.611-9.9-2.611-13.577a3.575 3.575 0 014.135-3.53 3.662 3.662 0 013.009 3.725zm-1.2 18.847a2.376 2.376 0 11-2.371-2.376 2.376 2.376 0 012.376 2.376z" fill="#fff"/>
   </g>
  </g>
 </g>
</svg>

<?xml version="1.0" encoding="UTF-8" standalone="no"?>
<svg
   xmlns:osb="http://www.openswatchbook.org/uri/2009/osb"
   xmlns:dc="http://purl.org/dc/elements/1.1/"
   xmlns:cc="http://creativecommons.org/ns#"
   xmlns:rdf="http://www.w3.org/1999/02/22-rdf-syntax-ns#"
   xmlns:svg="http://www.w3.org/2000/svg"
   xmlns="http://www.w3.org/2000/svg"
   id="svg47"
   version="1.1"
   viewBox="0 0 52.758294 52.758296"
   height="199.40143"
   width="199.40143">
  <defs
     id="defs42">
    <pattern
       id="EMFhbasepattern"
       patternUnits="userSpaceOnUse"
       width="6"
       height="6"
       x="0"
       y="0" />
    <marker
       style="overflow:visible"
       id="Arrow1Mend-5-0"
       refX="0"
       refY="0"
       orient="auto">
      <path
         transform="matrix(-0.4,0,0,-0.4,-4,0)"
         style="fill:#000000;fill-opacity:1;fill-rule:evenodd;stroke:#000000;stroke-width:1.00000003pt;stroke-opacity:1"
         d="M 0,0 5,-5 -12.5,0 5,5 Z"
         id="path1146-3-3" />
    </marker>
    <marker
       style="overflow:visible"
       id="Arrow1Mend-5-3"
       refX="0"
       refY="0"
       orient="auto">
      <path
         transform="matrix(-0.4,0,0,-0.4,-4,0)"
         style="fill:#000000;fill-opacity:1;fill-rule:evenodd;stroke:#000000;stroke-width:1.00000003pt;stroke-opacity:1"
         d="M 0,0 5,-5 -12.5,0 5,5 Z"
         id="path1146-3-9" />
    </marker>
    <marker
       orient="auto"
       refY="0"
       refX="0"
       id="Arrow1Mend-5-0-4"
       style="overflow:visible">
      <path
         id="path1146-3-3-8"
         d="M 0,0 5,-5 -12.5,0 5,5 Z"
         style="fill:#ffffff;fill-opacity:1;fill-rule:evenodd;stroke:#ffffff;stroke-width:1.00000003pt;stroke-opacity:1"
         transform="matrix(-0.4,0,0,-0.4,-4,0)" />
    </marker>
    <marker
       orient="auto"
       refY="0"
       refX="0"
       id="Arrow1Mend-5-3-8"
       style="overflow:visible">
      <path
         id="path1146-3-9-5"
         d="M 0,0 5,-5 -12.5,0 5,5 Z"
         style="fill:#ffffff;fill-opacity:1;fill-rule:evenodd;stroke:#ffffff;stroke-width:1.00000003pt;stroke-opacity:1"
         transform="matrix(-0.4,0,0,-0.4,-4,0)" />
    </marker>
    <marker
       style="overflow:visible"
       id="Arrow1Mend"
       refX="0"
       refY="0"
       orient="auto">
      <path
         transform="matrix(-0.4,0,0,-0.4,-4,0)"
         style="fill:#000000;fill-opacity:1;fill-rule:evenodd;stroke:#000000;stroke-width:1.00000003pt;stroke-opacity:1"
         d="M 0,0 5,-5 -12.5,0 5,5 Z"
         id="path1146" />
    </marker>
    <marker
       orient="auto"
       refY="0"
       refX="0"
       id="Arrow1Mend-5"
       style="overflow:visible">
      <path
         id="path1146-3"
         d="M 0,0 5,-5 -12.5,0 5,5 Z"
         style="fill:#ffffff;fill-opacity:1;fill-rule:evenodd;stroke:#ffffff;stroke-width:1.00000003pt;stroke-opacity:1"
         transform="matrix(-0.4,0,0,-0.4,-4,0)" />
    </marker>
    <marker
       style="overflow:visible"
       id="Arrow1Mstart"
       refX="0"
       refY="0"
       orient="auto">
      <path
         transform="matrix(0.4,0,0,0.4,4,0)"
         style="fill:#000000;fill-opacity:1;fill-rule:evenodd;stroke:#000000;stroke-width:1.00000003pt;stroke-opacity:1"
         d="M 0,0 5,-5 -12.5,0 5,5 Z"
         id="path1143" />
    </marker>
    <marker
       orient="auto"
       refY="0"
       refX="0"
       id="Arrow1Mstart-1"
       style="overflow:visible">
      <path
         id="path1143-7"
         d="M 0,0 5,-5 -12.5,0 5,5 Z"
         style="fill:#ffffff;fill-opacity:1;fill-rule:evenodd;stroke:#ffffff;stroke-width:1.00000003pt;stroke-opacity:1"
         transform="matrix(0.4,0,0,0.4,4,0)" />
    </marker>
    <marker
       style="overflow:visible"
       id="Arrow1Lend"
       refX="0"
       refY="0"
       orient="auto">
      <path
         transform="matrix(-0.8,0,0,-0.8,-10,0)"
         style="fill:#000000;fill-opacity:1;fill-rule:evenodd;stroke:#000000;stroke-width:1.00000003pt;stroke-opacity:1"
         d="M 0,0 5,-5 -12.5,0 5,5 Z"
         id="path1140" />
    </marker>
    <marker
       style="overflow:visible"
       id="Arrow1Lstart"
       refX="0"
       refY="0"
       orient="auto">
      <path
         transform="matrix(0.8,0,0,0.8,10,0)"
         style="fill:#000000;fill-opacity:1;fill-rule:evenodd;stroke:#000000;stroke-width:1.00000003pt;stroke-opacity:1"
         d="M 0,0 5,-5 -12.5,0 5,5 Z"
         id="path1137" />
    </marker>
    <marker
       orient="auto"
       refY="0"
       refX="0"
       id="Arrow1Lend-5"
       style="overflow:visible">
      <path
         id="path1140-4"
         d="M 0,0 5,-5 -12.5,0 5,5 Z"
         style="fill:#ffffff;fill-opacity:1;fill-rule:evenodd;stroke:#ffffff;stroke-width:1.00000003pt;stroke-opacity:1"
         transform="matrix(-0.8,0,0,-0.8,-10,0)" />
    </marker>
    <marker
       orient="auto"
       refY="0"
       refX="0"
       id="Arrow1Lstart-93"
       style="overflow:visible">
      <path
         id="path1137-7"
         d="M 0,0 5,-5 -12.5,0 5,5 Z"
         style="fill:#ffffff;fill-opacity:1;fill-rule:evenodd;stroke:#ffffff;stroke-width:1.00000003pt;stroke-opacity:1"
         transform="matrix(0.8,0,0,0.8,10,0)" />
    </marker>
    <linearGradient
       id="linearGradient4460"
       osb:paint="solid">
      <stop
         style="stop-color:#db3b3b;stop-opacity:1;"
         offset="0"
         id="stop4458" />
    </linearGradient>
  </defs>
  <metadata
     id="metadata45">
    <rdf:RDF>
      <cc:Work
         rdf:about="">
        <dc:format>image/svg+xml</dc:format>
        <dc:type
           rdf:resource="http://purl.org/dc/dcmitype/StillImage" />
        <dc:title></dc:title>
      </cc:Work>
    </rdf:RDF>
  </metadata>
  <g
     id="g8556"
     transform="translate(49.836509,-375.23204)">
    <g
       id="g5305">
      <g
         id="g832"
         style="display:inline"
         transform="translate(-303.64763,1036.4704)">
        <rect
           style="fill:#db3b3b;fill-opacity:1;stroke:#000000;stroke-width:0.520679;stroke-linecap:round;stroke-miterlimit:4;stroke-dasharray:none;paint-order:fill markers stroke"
           id="rect835-2-0-2-8-1-5-6-8-9-7"
           width="52.395985"
           height="52.395985"
           x="254.20381"
           y="-660.87268" />
        <text
           xml:space="preserve"
           style="font-size:6.3499999px;line-height:1.25;font-family:voestalpine;-inkscape-font-specification:voestalpine;text-align:center;letter-spacing:0px;word-spacing:0px;text-anchor:middle;stroke-width:0.26458299"
           x="280.47281"
           y="-609.9129"
           id="text858-5-83-73-2"><tspan
             id="tspan921-84-3-3"
             x="280.47281"
             y="-609.9129"
             style="font-size:6.3499999px;text-align:center;text-anchor:middle;fill:#ffffff;fill-opacity:1;stroke-width:0.26458299">Zastrzeżenie</tspan></text>
        <g
           style="fill:#ffffff;fill-opacity:1"
           id="g1567"
           transform="matrix(0.45802541,0,0,0.45802541,266.07043,-655.51345)">
          <path
             d="M 59.4,47.05 38.01,10.01 A 6.891,6.891 0 0 0 31.656,6.549 c -0.116,0 -0.232,0.014 -0.347,0.024 A 6.862,6.862 0 0 0 25.99,10.01 L 4.605,47.05 a 6.94,6.94 0 0 0 6.01,10.41 h 42.77 A 6.925,6.925 0 0 0 59.4,47.05 Z m -2.6,5.44 a 3.9,3.9 0 0 1 -3.412,1.97 H 10.615 A 3.9,3.9 0 0 1 7.2,52.49 3.9,3.9 0 0 1 7.2,48.55 L 28.588,11.51 a 3.94,3.94 0 0 1 6.824,0 L 56.8,48.55 a 3.9,3.9 0 0 1 0,3.94 z M 35.571,26.274 c -0.053,3.692 -1.57,9.687 -2.61,13.382 a 1,1 0 0 1 -1.923,0 c -1.059,-3.762 -2.611,-9.9 -2.611,-13.577 a 3.575,3.575 0 0 1 4.135,-3.53 3.662,3.662 0 0 1 3.009,3.725 z m -1.2,18.847 A 2.376,2.376 0 1 1 32,42.745 a 2.376,2.376 0 0 1 2.376,2.376 z"
             id="path1553"
             style="fill:#ffffff;fill-opacity:1" />
        </g>
      </g>
    </g>
  </g>
</svg>
